woocommerce/payment-gateway/assets/images/card-cc-plain.svg

<svg width="240" height="150" viewBox="0 0 240 150" fill="none" xmlns="http://www.w3.org/2000/svg">
<path d="M199.375 0H39.625C32.5636 0 25.7914 2.78886 20.7983 7.75306C15.8051 12.7173 13 19.4502 13 26.4706L13 123.529C13 130.55 15.8051 137.283 20.7983 142.247C25.7914 147.211 32.5636 150 39.625 150H199.375C206.436 150 213.209 147.211 218.202 142.247C223.195 137.283 226 130.55 226 123.529V26.4706C226 19.4502 223.195 12.7173 218.202 7.75306C213.209 2.78886 206.436 0 199.375 0ZM39.625 17.6471H199.375C201.729 17.6471 203.986 18.5767 205.651 20.2314C207.315 21.8861 208.25 24.1304 208.25 26.4706V35.2941C208.25 36.4642 207.782 37.5863 206.95 38.4137C206.118 39.2411 204.989 39.7059 203.812 39.7059H35.1875C34.0106 39.7059 32.8819 39.2411 32.0497 38.4137C31.2175 37.5863 30.75 36.4642 30.75 35.2941V26.4706C30.75 24.1304 31.685 21.8861 33.3494 20.2314C35.0138 18.5767 37.2712 17.6471 39.625 17.6471V17.6471ZM199.375 132.353H39.625C37.2712 132.353 35.0138 131.423 33.3494 129.769C31.685 128.114 30.75 125.87 30.75 123.529V70.5882C30.75 69.4182 31.2175 68.296 32.0497 67.4686C32.8819 66.6413 34.0106 66.1765 35.1875 66.1765H203.812C204.989 66.1765 206.118 66.6413 206.95 67.4686C207.782 68.296 208.25 69.4182 208.25 70.5882V123.529C208.25 125.87 207.315 128.114 205.651 129.769C203.986 131.423 201.729 132.353 199.375 132.353Z" fill="#485F6F"/>
<path d="M84.2 97H57.8C55.4661 97 53.2278 97.8955 51.5775 99.4896C49.9271 101.084 49 103.246 49 105.5C49 107.754 49.9271 109.916 51.5775 111.51C53.2278 113.104 55.4661 114 57.8 114H84.2C86.5339 114 88.7722 113.104 90.4225 111.51C92.0729 109.916 93 107.754 93 105.5C93 103.246 92.0729 101.084 90.4225 99.4896C88.7722 97.8955 86.5339 97 84.2 97V97Z" fill="#485F6F"/>
</svg>

<svg width="240" height="150" fill="none" xmlns="http://www.w3.org/2000/svg"><path d="M199.375 0H39.625a26.704 26.704 0 00-18.827 7.753A26.393 26.393 0 0013 26.471v97.058a26.393 26.393 0 007.798 18.718A26.705 26.705 0 0039.625 150h159.75a26.706 26.706 0 0018.827-7.753A26.393 26.393 0 00226 123.529V26.471c0-7.02-2.805-13.754-7.798-18.718A26.705 26.705 0 00199.375 0zM39.625 17.647h159.75c2.354 0 4.611.93 6.276 2.584a8.799 8.799 0 012.599 6.24v8.823a4.4 4.4 0 01-1.3 3.12 4.45 4.45 0 01-3.138 1.292H35.187a4.45 4.45 0 01-3.137-1.292 4.399 4.399 0 01-1.3-3.12v-8.823c0-2.34.935-4.585 2.6-6.24a8.901 8.901 0 016.275-2.584zm159.75 114.706H39.625a8.904 8.904 0 01-6.276-2.584 8.798 8.798 0 01-2.599-6.24v-52.94c0-1.17.468-2.293 1.3-3.12a4.45 4.45 0 013.138-1.292h168.624a4.45 4.45 0 013.138 1.292 4.4 4.4 0 011.3 3.12v52.94a8.8 8.8 0 01-2.599 6.24 8.906 8.906 0 01-6.276 2.584z" fill="#485F6F"/><path d="M84.2 97H57.8c-2.334 0-4.572.895-6.222 2.49-1.65 1.594-2.578 3.756-2.578 6.01s.927 4.416 2.578 6.01A8.96 8.96 0 0057.8 114h26.4a8.96 8.96 0 006.222-2.49c1.65-1.594 2.578-3.756 2.578-6.01s-.927-4.416-2.578-6.01C88.772 97.896 86.534 97 84.2 97z" fill="#485F6F"/></svg>
